X: 2332
T: Bargenny Bowling Green.   a Jig.
C: by Jo. Riddell
%R: jig
B: Niel Gow & Sons "Complete Repository" v.2 p.33 #2
Z: 2021 John Chambers <jc:trillian.mit.edu>
M: 6/8
L: 1/8
K: Dm
% - - - - - - - - - -
V: 1 staves=2
A, | (DE).D D2c | GEC ~C2E | DED D2e | f2d ecA | fgf {f}e2d | cAc ~C2E | DED D2f | (e/f/g)e d2 :|
|: A | de.d d2a | gec ~c2e | ded d2a | g2e fdA | fgf {f}e2d cAc ~C2E | D>ED D2f | (e/f/g).e d2 :|
|: A | dAd cAc | GEC ~C2c | dAd cAc | dAd cAc | fed cAF | GEC ~C2E | D>ED D2f | (e/f/g).e d2 :|
|: f/g/ | afd afd | gec efg | afd afd | afd ~d2e | fgf {f}e2d | cAc ~C2E | DE.D D2f | (e/f/g).e d2 :|
% - - - - - - - - - -
V: 2 clef=bass middle=d
z | d3 d3 | c3 c3 | d3 d3 | d3 A3 | d3 d3 | c3 c3 | d3 d3 | A3 D2 :|
|: z | d'3 d'3 | c'3 c'3 | d'3 d'3 | a3 d3 | d3 e3 | f3 c3 | d3 d3 | A3 d2 :|
|: z | [d3D3][d3D3] | [c3C3] [c3C3] | [d3D3] [d3D3] | [d3D3] [d3D3] |\
       [d3D3][d3D3] | [c3C3] [c3C3] | [d3D3] [d3D3] | [a3A3] [d2D2] :|
|: z | d'3 d'3 | c'3 c'3 | d'3 d'3 | d'3 d'3 | d3 e3 | f3 c3 | d3 d3 | A3 d2 :|


